img/bg-shap.svg

<svg width="327" height="215" viewBox="0 0 327 215" fill="none" xmlns="http://www.w3.org/2000/svg">
<path fill-rule="evenodd" clip-rule="evenodd" d="M302 0.177734C315.807 0.177734 327 11.3706 327 25.1777V63.1772C326.999 63.1772 326.999 63.1772 326.998 63.1772C302.145 63.1772 281.998 84.2199 281.998 110.177C281.998 136.135 302.145 157.177 326.998 157.177C326.999 157.177 326.999 157.177 327 157.177V189.178C327 202.985 315.807 214.178 302 214.178H25C11.1929 214.178 0 202.985 0 189.178V25.1777C0 11.3706 11.1929 0.177734 25 0.177734H302Z" fill="white"/>
<path fill-rule="evenodd" clip-rule="evenodd" d="M302 0.177734C315.807 0.177734 327 11.3706 327 25.1777V63.1772C326.999 63.1772 326.999 63.1772 326.998 63.1772C302.145 63.1772 281.998 84.2199 281.998 110.177C281.998 136.135 302.145 157.177 326.998 157.177C326.999 157.177 326.999 157.177 327 157.177V189.178C327 202.985 315.807 214.178 302 214.178H25C11.1929 214.178 0 202.985 0 189.178V25.1777C0 11.3706 11.1929 0.177734 25 0.177734H302Z" fill="white"/>
</svg>

<svg width="327" height="215" fill="none" xmlns="http://www.w3.org/2000/svg"><path fill-rule="evenodd" clip-rule="evenodd" d="M302 .178c13.807 0 25 11.193 25 25v38h-.002c-24.853 0-45 21.042-45 46.999 0 25.958 20.147 47 45 47H327v32.001c0 13.807-11.193 25-25 25H25c-13.807 0-25-11.193-25-25v-164c0-13.807 11.193-25 25-25h277z" fill="#fff"/><path fill-rule="evenodd" clip-rule="evenodd" d="M302 .178c13.807 0 25 11.193 25 25v38h-.002c-24.853 0-45 21.042-45 46.999 0 25.958 20.147 47 45 47H327v32.001c0 13.807-11.193 25-25 25H25c-13.807 0-25-11.193-25-25v-164c0-13.807 11.193-25 25-25h277z" fill="#fff"/></svg>
